mobile/24/svg/avatar-warning-circle-fill-24.svg

<svg width="24" height="24" viewBox="0 0 24 24" fill="none" xmlns="http://www.w3.org/2000/svg">
<path fill-rule="evenodd" clip-rule="evenodd" d="M11.021 20.209L11.9697 18.686C11.6518 18.727 11.3289 18.75 11 18.75C8.51198 18.75 6.29998 17.567 4.88098 15.738C5.20398 14.733 6.13698 14 7.24998 14H14.75C14.7758 14 14.8009 14.0026 14.826 14.0053C14.8446 14.0072 14.8632 14.0091 14.882 14.01L12.6448 17.6024L16.128 12.011C17.107 10.44 19.394 10.44 20.372 12.011L20.836 12.756C20.938 12.184 21 11.6 21 11C21 5.486 16.514 1 11 1C5.486 1 1 5.486 1 11C1 16.418 5.334 20.833 10.715 20.986C10.775 20.722 10.865 20.46 11.021 20.209ZM8.10295 9.799C7.58595 7.798 9.08295 6 10.9999 6C12.6569 6 14 7.343 14 9C14 10.917 12.202 12.414 10.2009 11.897C9.18995 11.636 8.36395 10.809 8.10295 9.799Z" fill="black"/>
<path fill-rule="evenodd" clip-rule="evenodd" d="M22.537 22.436H13.963C13.003 22.436 12.402 21.399 12.878 20.566L17.163 13.067C17.644 12.226 18.857 12.226 19.337 13.067L23.622 20.566C24.098 21.399 23.497 22.436 22.537 22.436ZM17.5 15H19V16.5H17.5V15ZM17.5 17.75H19V20.5H17.5V17.75Z" fill="black"/>
</svg>

<svg width="24" height="24" fill="none" xmlns="http://www.w3.org/2000/svg"><path fill-rule="evenodd" clip-rule="evenodd" d="m11.021 20.209.949-1.523c-.318.041-.641.064-.97.064a7.732 7.732 0 0 1-6.119-3.012A2.492 2.492 0 0 1 7.25 14h7.5c.026 0 .05.003.076.005l.056.005-2.237 3.592 3.483-5.591c.979-1.571 3.266-1.571 4.244 0l.464.745A9.973 9.973 0 0 0 21 11c0-5.514-4.486-10-10-10S1 5.486 1 11c0 5.418 4.334 9.833 9.715 9.986.06-.264.15-.526.306-.777zM8.103 9.799A3.006 3.006 0 0 1 11 6a3 3 0 0 1 3 3 3.006 3.006 0 0 1-3.8 2.897 2.967 2.967 0 0 1-2.097-2.098z" fill="#000"/><path fill-rule="evenodd" clip-rule="evenodd" d="M22.537 22.436h-8.574a1.25 1.25 0 0 1-1.085-1.87l4.285-7.499a1.252 1.252 0 0 1 2.174 0l4.285 7.499a1.25 1.25 0 0 1-1.085 1.87zM17.5 15H19v1.5h-1.5V15zm0 2.75H19v2.75h-1.5v-2.75z" fill="#000"/></svg>
